static/assets/img/icons/theme/cooking/knife-fork-2.svg

<svg height="24" viewBox="0 0 24 24" width="24" xmlns="http://www.w3.org/2000/svg"><g fill="none" fill-rule="evenodd"><path d="m0 0h24v24h-24z" opacity="0"/><g fill="#000"><path d="m3.98842709 3.05999994 7.07106781 7.07106786-2.82842712 2.8284271-4.24264069-4.24264071c-1.56209717-1.56209716-1.56209717-4.09475708 0-5.65685425z"/><path d="m17.7539614 3.90710683-2.8653616 3.50210865c-.1797411.2196835-.1637739.53982368.0369344.74053204.2007084.20070835.5208486.21667554.7405321.03693449l3.5021086-2.86536162.7071068.70710678-2.8653616 3.50210865c-.1797411.21968351-.1637739.53982368.0369345.74053208.2007083.2007083.5208485.2166755.740532.0369345l3.5021087-2.86536167.7071068.70710679-3.1819806 3.18198048c-1.366835 1.3668351-3.5829124 1.3668351-4.9497474 0-1.366835-1.36683499-1.366835-3.58291242 0-4.94974744l3.1819805-3.18198051z"/><path d="m11.0753788 13.9246212c.3961649.3961649.4122457 1.0333377.036569 1.4489822l-4.97010219 5.4988649c-.52814319.5843316-1.42998223.6298814-2.01431388.1017382-.01779862-.0160871-.03518846-.0326208-.05215293-.0495853-.55694646-.5569465-.55694646-1.4599351 0-2.0168815.01696447-.0169645.03435431-.0334982.05215293-.0495853l5.49886489-4.9701022c.41564448-.3756767 1.05281728-.3595959 1.44898218.036569z" opacity=".3"/><path d="m13.0754022 13.9246212c.3961649-.3961649 1.0333377-.4122457 1.4489822-.036569l5.4988649 4.9701022c.0177986.0160871.0351884.0326208.0521529.0495853.5569465.5569464.5569465 1.459935 0 2.0168815-.0169645.0169645-.0343543.0334982-.0521529.0495853-.5843317.5281432-1.4861707.4825934-2.0143139-.1017382l-4.9701022-5.4988649c-.3756767-.4156445-.3595959-1.0528173.036569-1.4489822z" opacity=".3"/></g></g></svg>

<svg width="24px" height="24px" viewBox="0 0 24 24" version="1.1" xmlns="http://www.w3.org/2000/svg" xmlns:xlink="http://www.w3.org/1999/xlink">
    <title>Icon For Knife&amp;fork#2</title>
    <g stroke="none" stroke-width="1" fill="none" fill-rule="evenodd">
        <rect opacity="0" x="0" y="0" width="24" height="24"></rect>
        <path d="M3.98842709,3.05999994 L11.0594949,10.1310678 L8.23106778,12.9594949 L3.98842709,8.71685419 C2.42632992,7.15475703 2.42632992,4.62209711 3.98842709,3.05999994 Z" fill="#000000"></path>
        <path d="M17.7539614,3.90710683 L14.8885998,7.40921548 C14.7088587,7.62889898 14.7248259,7.94903916 14.9255342,8.14974752 C15.1262426,8.35045587 15.4463828,8.36642306 15.6660663,8.18668201 L19.1681749,5.32132039 L19.8752817,6.02842717 L17.0099201,9.53053582 C16.830179,9.75021933 16.8461462,10.0703595 17.0468546,10.2710679 C17.2475629,10.4717762 17.5677031,10.4877434 17.7873866,10.3080024 L21.2894953,7.44264073 L21.9966021,8.14974752 L18.8146215,11.331728 C17.4477865,12.6985631 15.2317091,12.6985631 13.8648741,11.331728 C12.4980391,9.96489301 12.4980391,7.74881558 13.8648741,6.38198056 L17.0468546,3.20000005 L17.7539614,3.90710683 Z" fill="#000000"></path>
        <path d="M11.0753788,13.9246212 C11.4715437,14.3207861 11.4876245,14.9579589 11.1119478,15.3736034 L6.14184561,20.8724683 C5.61370242,21.4567999 4.71186338,21.5023497 4.12753173,20.9742065 C4.10973311,20.9581194 4.09234327,20.9415857 4.0753788,20.9246212 C3.51843234,20.3676747 3.51843234,19.4646861 4.0753788,18.9077397 C4.09234327,18.8907752 4.10973311,18.8742415 4.12753173,18.8581544 L9.62639662,13.8880522 C10.0420411,13.5123755 10.6792139,13.5284563 11.0753788,13.9246212 Z" fill="#000000" opacity="0.3"></path>
        <path d="M13.0754022,13.9246212 C13.4715671,13.5284563 14.1087399,13.5123755 14.5243844,13.8880522 L20.0232493,18.8581544 C20.0410479,18.8742415 20.0584377,18.8907752 20.0754022,18.9077397 C20.6323487,19.4646861 20.6323487,20.3676747 20.0754022,20.9246212 C20.0584377,20.9415857 20.0410479,20.9581194 20.0232493,20.9742065 C19.4389176,21.5023497 18.5370786,21.4567999 18.0089354,20.8724683 L13.0388332,15.3736034 C12.6631565,14.9579589 12.6792373,14.3207861 13.0754022,13.9246212 Z" fill="#000000" opacity="0.3"></path>
    </g>
</svg>
